X:178
T:Je m'estoie mis en voie
C:Manuscript de Montpellier (XIIIe siècle)
R:Motet
M:6/8
L:1/8
Q:1/4=120
% Last note suggests Phrygian mode tune
K:F 
V:1
c2d A2B | A2G A/2G/2FG | A2=B cdc | A2z A2_B | 
AGA/2G/2 F/2E/2DC | DEF GAG/2F/2 | EDC D2z | G2A c2d | 
e/2f/2ec B/2A/2GA/2B/2 | A2G/2A/2 GFz | G2F/2E/2 D2F | G2F GAz | 
dcA F2G/2F/2 | E/2D/2CD F2z | AGE/2C/2 D (3F/2E/2D/2C | D2F GFG | 
A2z c2c | d2e cdc | =B/2A/2Gd c=BA/2G/2 | GA2 |]
V:2
F,2G, A,2G, | A,2z A,2C | A,2A, G,2z | A,2G, E,2F, | 
G,2z D,2F, | E,2D, D,2z | F,2A, F,2F, | E,2z A,2G, | 
E,2F, G,2z | E,2G, _B,2A, | G,2z A,2F, | D,2F, E,2z | 
D,2A, A,2G, | G,2z F,2A, | C2A, G,2z | A,2A, C2A, | 
A,2z G,2A, | G,2E, F,2z | G,2D, F,2E, | D,3 |]





